src/assets/images/brands/mickey.svg

<svg height="62" viewBox="0 0 129 62" width="129" xmlns="http://www.w3.org/2000/svg"><path d="m27.197544.678997-8.20525 12.564499-7.49-10.95475-11.50225 27.432003 12.35225 4.391998-9.229 22.03075 12.914752 4.558251 2.278997-5.994503 4.558251 6.313503 3.555-5.682751 1.8235 5.925999 11.059999-4.019501c2.541393 1.821507 5.595101 2.789864 8.721752 2.765751 4.465668.051602 8.70913-1.944393 11.517002-5.417251 2.279065 3.654113 6.350682 6.367 12.040745 6.367 3.480667.102566 6.870117-1.122188 9.481255-3.425998l-.092003.348499 2.278999.75975c.173867.058636.344307.126995.510498.20475 2.314209 1.057492 4.831436 1.596806 7.375756 1.58025 2.676002.062435 5.328727-.51012 7.740745-1.67075l21.271256 1.701752.630745-11.395252-3.304497-.189751.75975-5.575996 1.580246.158745 1.572754-10.976746-2.127754-.144005-.562248-9.314995 9.291252-10.346252-10.764748-9.116249-5.780754 7.983997-5.789497-6.4795-.811753.759751v-.236248l-20.907753-.494v1.891751l-6.001747-4.261254-4.938003 7.110253-.759751-4.785252-11.098495 1.716751c-1.53466-.623455-3.147774-1.032871-4.793999-1.216751-.650513-.078281-1.305046-.118431-1.960251-.120251-2.920734-.015621-5.776989.858479-8.188751 2.506001l.143749-2.278999-12.990249-.949502-.44075 9.822503zm-.547251 5.491997 8.314753 20.156254.847-18.857251 7.794498.554497-.532501 8.669754c1.395256-5.411575 6.344879-9.369018 12.976254-8.586002 2.392772.193249 4.683529 1.053085 6.612499 2.481998l-.24625-1.410999 7.702999-1.200249 1.291496 8.637749 7.164002-10.308998 5.887504 4.178249-6.518005 8.485752 8.322998 5.774998.314507-17.041252 15.535751.364754-.473 4.224247 3.845993-3.548249 6.176255 6.91325 6.024246-8.35675 6.624504 5.62175-8.2425 9.184749.554496 8.736252-7.991996.061001-.106247-9.207501-8.591256-7.759502-6.078498-.133747v2.628498l5.872497.068501-.524246 5.530498-5.439255-.174999v2.78825l8.728752.106502-.060745 6.168499-16.272507-.577249.089501-4.856001-5.961998 5.820751-7.733498-7.528499 1.010246 6.791498-7.201751 1.245998-3.265743-18.71525-2.394001 3.962002c-1.007645-1.127464-2.412285-1.821549-3.920002-1.937-2.772862-.326691-5.127694 1.055858-5.484749 3.98825-.326664 2.765255 1.671127 5.013859 4.778251 5.4165 1.291218.13382 2.595543-.051349 3.7985-.539249l2.188 5.86475c-2.426639 1.200273-5.162308 1.629726-7.84 1.230749-5.726669-.680969-10.66605-4.075499-11.440754-9.705l-.600246 9.773251-7.422253-.349501.099251-2.207499-8.045502 2.936997-2.67425-8.683247-4.497249 7.16375-5.089999-6.99675h-.06075l-3.038751 8.05275-8.03-2.87175 8.6225-20.511501 6.9435 10.14175h.060999zm3.145251 26.40675 6.639 16.094253c-.212593-.874607-.326001-1.800041-.326001-2.769501 0-6.882785 5.735547-11.547249 11.927002-11.547249 6.191456 0 11.980252 4.618897 11.980252 11.547249 0 6.928357-5.773598 11.547249-11.980252 11.547249-4.200477 0-8.184078-2.141983-10.316501-5.664249l1.192749 2.891502-8.98725 3.289498-2.6665-8.713749-4.52775 7.194248-5.052-7.026997h-.06825l-3.038749 8.05275-8.02225-2.86425 8.64525-20.5495 6.935999 10.18h.068251zm62.978.721752c2.530243.092125 5.01696.686039 7.31575 1.747249l-1.466247 5.317749c-1.747612-1.009071-3.732788-1.533607-5.750755-1.5195-.427361-.03125-.848969.113243-1.167321.400062-.318351.286831-.505867.691143-.51918 1.119438 0 .911629.972527 1.321911 1.519501 1.466252 1.746864.339863 3.456566.848674 5.105003 1.519252 2.362618 1.124016 4.022812 3.017601 4.206253 5.635499l.959496-15.184754 15.505249 1.056-.873497 5.872253-7.597-.501251-.151749 2.621002 5.864746.3265-.75975 5.507752-5.424248-.425503-.144249 2.78825 8.721252.493751-.342002 6.161-16.226754-1.299.331002-5.237c-.850251 4.369812-5.110474 6.710751-10.716004 6.710751-2.45343-.015034-4.872497-.578262-7.080246-1.648502l1.352249-5.203751c1.523247.748581 3.195076 1.145756 4.89225 1.162251 2.233483 0 2.818505-.75969 2.818505-1.625748 0-1.466183-2.757637-1.686409-4.315003-2.203003-2.848831-.894543-4.76181-2.430092-5.540252-4.612999.021888.337025.037811.674412.047752 1.012001.015182 7.855167-3.942856 13.651501-11.737251 13.651501-7.73362 0-11.585247-5.826657-11.585247-11.205254 0-5.993927 2.545032-10.696506 3.836498-13.499748l7.049751 2.415748c-1.997978 4.482155-2.894256 7.596848-2.894256 10.020253 0 3.221065 1.352081 5.1585 3.737503 5.1585 2.864021 0 3.608497-4.155662 3.608497-7.475502-.019317-2.477916-.442619-4.9361-1.25325-7.277752l7.528504-.972496c.583351 1.629052 1.017631 3.307686 1.2975 5.015252.347794-4.948205 4.138062-7.286503 9.847-7.286503zm-44.737999 8.03725c-2.051155 0-4.034 1.679035-4.034 4.558251 0 2.879219 1.982845 4.55825 4.034 4.55825 2.051159 0 4.064251-1.686615 4.064251-4.55825 0-2.871605-2.013092-4.558251-4.064251-4.558251z"/></svg>

<?xml version="1.0" encoding="UTF-8"?>
<!-- Generated by Pixelmator Pro 3.6.14 -->
<svg width="129" height="62" viewBox="0 0 129 62" xmlns="http://www.w3.org/2000/svg">
    <path id="mickey" fill="#000000" stroke="none" d="M 27.197544 0.678997 L 18.992294 13.243496 L 11.502294 2.288746 L 4.4e-05 29.720749 L 12.352294 34.112747 L 3.123294 56.143497 L 16.038046 60.701748 L 18.317043 54.707245 L 22.875294 61.020748 L 26.430294 55.337997 L 28.253794 61.263996 L 39.313793 57.244495 C 41.855186 59.066002 44.908894 60.034359 48.035545 60.010246 C 52.501213 60.061848 56.744675 58.065853 59.552547 54.592995 C 61.831612 58.247108 65.903229 60.959995 71.593292 60.959995 C 75.073959 61.062561 78.463409 59.837807 81.074547 57.533997 L 80.982544 57.882496 L 83.261543 58.642246 C 83.43541 58.700882 83.60585 58.769241 83.772041 58.846996 C 86.08625 59.904488 88.603477 60.443802 91.147797 60.427246 C 93.823799 60.489681 96.476524 59.917126 98.888542 58.756496 L 120.159798 60.458248 L 120.790543 49.062996 L 117.486046 48.873245 L 118.245796 43.297249 L 119.826042 43.455994 L 121.398796 32.479248 L 119.271042 32.335243 L 118.708794 23.020248 L 128.000046 12.673996 L 117.235298 3.557747 L 111.454544 11.541744 L 105.665047 5.062244 L 104.853294 5.821995 L 104.853294 5.585747 L 83.945541 5.091747 L 83.945541 6.983498 L 77.943794 2.722244 L 73.005791 9.832497 L 72.24604 5.047245 L 61.147545 6.763996 C 59.612885 6.140541 57.999771 5.731125 56.353546 5.547245 C 55.703033 5.468964 55.0485 5.428814 54.393295 5.426994 C 51.472561 5.411373 48.616306 6.285473 46.204544 7.932995 L 46.348293 5.653996 L 33.358044 4.704494 L 32.917294 14.526997 L 27.197544 0.678997 Z M 26.650293 6.170994 L 34.965046 26.327248 L 35.812046 7.469997 L 43.606544 8.024494 L 43.074043 16.694248 C 44.469299 11.282673 49.418922 7.32523 56.050297 8.108246 C 58.443069 8.301495 60.733826 9.161331 62.662796 10.590244 L 62.416546 9.179245 L 70.119545 7.978996 L 71.411041 16.616745 L 78.575043 6.307747 L 84.462547 10.485996 L 77.944542 18.971748 L 86.26754 24.746746 L 86.582047 7.705494 L 102.117798 8.070248 L 101.644798 12.294495 L 105.490791 8.746246 L 111.667046 15.659496 L 117.691292 7.302746 L 124.315796 12.924496 L 116.073296 22.109245 L 116.627792 30.845497 L 108.635796 30.906498 L 108.529549 21.698997 L 99.938293 13.939495 L 93.859795 13.805748 L 93.859795 16.434246 L 99.732292 16.502747 L 99.208046 22.033245 L 93.768791 21.858246 L 93.768791 24.646496 L 102.497543 24.752998 L 102.436798 30.921497 L 86.164291 30.344248 L 86.253792 25.488247 L 80.291794 31.308998 L 72.558296 23.780499 L 73.568542 30.571997 L 66.366791 31.817995 L 63.101048 13.102745 L 60.707047 17.064747 C 59.699402 15.937283 58.294762 15.243198 56.787045 15.127747 C 54.014183 14.801056 51.659351 16.183605 51.302296 19.115997 C 50.975632 21.881252 52.973423 24.129856 56.080547 24.532497 C 57.371765 24.666317 58.67609 24.481148 59.879047 23.993248 L 62.067047 29.857998 C 59.640408 31.058271 56.904739 31.487724 54.227047 31.088747 C 48.500378 30.407778 43.560997 27.013248 42.786293 21.383747 L 42.186047 31.156998 L 34.763794 30.807497 L 34.863045 28.599998 L 26.817543 31.536995 L 24.143293 22.853748 L 19.646044 30.017498 L 14.556045 23.020748 L 14.495295 23.020748 L 11.456544 31.073498 L 3.426544 28.201748 L 12.049044 7.690247 L 18.992544 17.831997 L 19.053543 17.831997 L 26.650293 6.170994 Z M 29.795544 32.577744 L 36.434544 48.671997 C 36.221951 47.79739 36.108543 46.871956 36.108543 45.902496 C 36.108543 39.019711 41.84409 34.355247 48.035545 34.355247 C 54.227001 34.355247 60.015797 38.974144 60.015797 45.902496 C 60.015797 52.830853 54.242199 57.449745 48.035545 57.449745 C 43.835068 57.449745 39.851467 55.307762 37.719044 51.785496 L 38.911793 54.676998 L 29.924543 57.966496 L 27.258043 49.252747 L 22.730293 56.446995 L 17.678293 49.419998 L 17.610043 49.419998 L 14.571294 57.472748 L 6.549044 54.608498 L 15.194294 34.058998 L 22.130293 44.238998 L 22.198544 44.238998 L 29.795544 32.577744 Z M 92.773544 33.299496 C 95.303787 33.391621 97.790504 33.985535 100.089294 35.046745 L 98.623047 40.364494 C 96.875435 39.355423 94.890259 38.830887 92.872292 38.844994 C 92.444931 38.813744 92.023323 38.958237 91.704971 39.245056 C 91.38662 39.531887 91.199104 39.936199 91.185791 40.364494 C 91.185791 41.276123 92.158318 41.686405 92.705292 41.830746 C 94.452156 42.170609 96.161858 42.67942 97.810295 43.349998 C 100.172913 44.474014 101.833107 46.367599 102.016548 48.985497 L 102.976044 33.800743 L 118.481293 34.856743 L 117.607796 40.728996 L 110.010796 40.227745 L 109.859047 42.848747 L 115.723793 43.175247 L 114.964043 48.682999 L 109.539795 48.257496 L 109.395546 51.045746 L 118.116798 51.539497 L 117.774796 57.700497 L 101.548042 56.401497 L 101.879044 51.164497 C 101.028793 55.534309 96.76857 57.875248 91.16304 57.875248 C 88.70961 57.860214 86.290543 57.296986 84.082794 56.226746 L 85.435043 51.022995 C 86.95829 51.771576 88.630119 52.168751 90.327293 52.185246 C 92.560776 52.185246 93.145798 51.425556 93.145798 50.559498 C 93.145798 49.093315 90.388161 48.873089 88.830795 48.356495 C 85.981964 47.461952 84.068985 45.926403 83.290543 43.743496 C 83.312431 44.080521 83.328354 44.417908 83.338295 44.755497 C 83.353477 52.610664 79.395439 58.406998 71.601044 58.406998 C 63.867424 58.406998 60.015797 52.580341 60.015797 47.201744 C 60.015797 41.207817 62.560829 36.505238 63.852295 33.701996 L 70.902046 36.117744 C 68.904068 40.599899 68.00779 43.714592 68.00779 46.137997 C 68.00779 49.359062 69.359871 51.296497 71.745293 51.296497 C 74.609314 51.296497 75.35379 47.140835 75.35379 43.820995 C 75.334473 41.343079 74.911171 38.884895 74.10054 36.543243 L 81.629044 35.570747 C 82.212395 37.199799 82.646675 38.878433 82.926544 40.585999 C 83.274338 35.637794 87.064606 33.299496 92.773544 33.299496 Z M 48.035545 41.336746 C 45.98439 41.336746 44.001545 43.015781 44.001545 45.894997 C 44.001545 48.774216 45.98439 50.453247 48.035545 50.453247 C 50.086704 50.453247 52.099796 48.766632 52.099796 45.894997 C 52.099796 43.023392 50.086704 41.336746 48.035545 41.336746 Z"/>
</svg>
